src/pos-icons/briefcase-remove-outline.svg

<svg height="24" viewBox="0 0 24 24" width="24" xmlns="http://www.w3.org/2000/svg"><path d="m10 2h4a2 2 0 0 1 2 2v2h4a2 2 0 0 1 2 2v5.53c-.58-.53-1.25-.93-2-1.19v-4.34h-16v11h8.08c.12.72.37 1.39.72 2h-8.8a2 2 0 0 1 -2-2v-11a2 2 0 0 1 2-2h4v-2a2 2 0 0 1 2-2m4 4v-2h-4v2zm.46 9.88 1.42-1.42 2.12 2.13 2.12-2.13 1.42 1.42-2.13 2.12 2.13 2.12-1.42 1.42-2.12-2.13-2.12 2.13-1.42-1.42 2.13-2.12z"/></svg>

<?xml version="1.0" encoding="UTF-8"?><!DOCTYPE svg PUBLIC "-//W3C//DTD SVG 1.1//EN" "http://www.w3.org/Graphics/SVG/1.1/DTD/svg11.dtd"><svg xmlns="http://www.w3.org/2000/svg" xmlns:xlink="http://www.w3.org/1999/xlink" version="1.1" id="mdi-briefcase-remove-outline" width="24" height="24" viewBox="0 0 24 24"><path d="M10,2H14A2,2 0 0,1 16,4V6H20A2,2 0 0,1 22,8V13.53C21.42,13 20.75,12.6 20,12.34V8H4V19H12.08C12.2,19.72 12.45,20.39 12.8,21H4A2,2 0 0,1 2,19V8A2,2 0 0,1 4,6H8V4A2,2 0 0,1 10,2M14,6V4H10V6H14M14.46,15.88L15.88,14.46L18,16.59L20.12,14.46L21.54,15.88L19.41,18L21.54,20.12L20.12,21.54L18,19.41L15.88,21.54L14.46,20.12L16.59,18L14.46,15.88Z" /></svg>
